svg/300/sharp/box_edit-fill.svg

<svg xmlns="http://www.w3.org/2000/svg" width="48" height="48" viewBox="0 -960 960 960"><path d="M140.001-140.001v-566.305l87.001-113.693h504.996l88.001 114.462v102.999l-200 198.615v-264.692H340.001v311.613L480-427.001l108.231 54.231-96.693 96.308v136.461H140.001Zm424.615 0v-105.692l250.691-249.691 104.691 105.076-249.691 250.307H564.616Zm250.691-211.692 37-38.615-37-37.385-38 38 38 38ZM201.616-713.999H757l-48.309-60.616H250.309l-48.693 60.616Z"/></svg>

<svg xmlns="http://www.w3.org/2000/svg" width="48" height="48" viewBox="0 -960 960 960"><path d="M140-140v-566.31L227-820h505l88 114.46v103L620-403.92v-264.69H340V-357l140-70 108.23 54.23-96.69 96.31V-140H140Zm424.62 0v-105.69l250.69-249.69L920-390.31 670.31-140H564.62Zm250.69-211.69 37-38.62-37-37.38-38 38 38 38ZM201.62-714H757l-48.31-60.61H250.31L201.62-714Z"/></svg>
